packages/foundations/assets/icons/functional/images/navigation/log_in_20.svg

<svg xmlns="http://www.w3.org/2000/svg" width="20" height="20" fill="none"><g clip-path="url(#a)"><path fill="#1A1C1F" fill-rule="evenodd" d="M17.5 6c0-1.656-1.344-3-3-3h-2c-.562 0-1 .469-1 1 0 .563.438 1 1 1h2c.531 0 1 .438 1 1v8c0 .563-.469 1-1 1h-2c-.562 0-1 .438-1 1 0 .531.438 1 1 1h2c1.656 0 3-1.344 3-3zm-15 4c0 .531.437 1 1 1h5.594l-1.282 1.281A.9.9 0 0 0 7.5 13c0 .562.437 1 1 1 .25 0 .5-.094.719-.281l3-3.032A.97.97 0 0 0 12.5 10c0-.25-.094-.5-.281-.719l-3-3A1.05 1.05 0 0 0 8.5 6c-.531 0-1 .437-1 1 0 .25.094.531.312.719L9.094 9H3.5c-.563 0-1 .438-1 1" clip-rule="evenodd"/></g><defs><clipPath id="a"><path fill="#fff" d="M0 0h20v20H0z"/></clipPath></defs></svg>

<svg width="20" height="20" viewBox="0 0 20 20" fill="none" xmlns="http://www.w3.org/2000/svg">
<g clip-path="url(#clip0_187_48)">
<path fill-rule="evenodd" clip-rule="evenodd" d="M17.5 6C17.5 4.344 16.156 3 14.5 3H12.5C11.938 3 11.5 3.469 11.5 4C11.5 4.563 11.938 5 12.5 5H14.5C15.031 5 15.5 5.438 15.5 6V14C15.5 14.563 15.031 15 14.5 15H12.5C11.938 15 11.5 15.438 11.5 16C11.5 16.531 11.938 17 12.5 17H14.5C16.156 17 17.5 15.656 17.5 14V6ZM2.5 10C2.5 10.531 2.937 11 3.5 11H9.094L7.812 12.281C7.594 12.469 7.5 12.719 7.5 13C7.5 13.562 7.937 14 8.5 14C8.75 14 9 13.906 9.219 13.719L12.219 10.687C12.406 10.5 12.5 10.25 12.5 10C12.5 9.75 12.406 9.5 12.219 9.281L9.219 6.281C9.031 6.094 8.75 6 8.5 6C7.969 6 7.5 6.437 7.5 7C7.5 7.25 7.594 7.531 7.812 7.719L9.094 9H3.5C2.937 9 2.5 9.438 2.5 10Z" fill="#1A1C1F"/>
</g>
<defs>
<clipPath id="clip0_187_48">
<rect width="20" height="20" fill="white"/>
</clipPath>
</defs>
</svg>
